X: 305857
M: none
L: 1/16
K: D
d2d2 dAFA | d2d2 efge | d2d2 dAFA | BdAF E2E2 :|
afaf gege | faed cBA2 | afaf gege | faec d2d2 :|\
d2fd efge | d2fd edcA | d2fd efge | faec d2d2 :|


